src/icons/politics/uF4F2-polit-communism.svg

<svg xmlns="http://www.w3.org/2000/svg" viewBox="0 0 1024 1024"><path d="M862.42188,739.91211C946.808,648.1467,986.19664,521.5028,970.55692,397.83469c-16.43836-129.98324-92.84186-260.41155-209.8553-324.02348-55.02053-29.91077-120.04334-46.14565-182.80513-42.175-18.10428,1.14538-36.07755,8.8238-38.06073,29.59838-2.92262,30.61558,25.24254,34.34374,47.76407,34.489,130.3533.84052,233.29538,97.10022,277.40943,213.90823,46.59852,123.38654,22.37005,267.3041-70.55833,362.30912l-413.196-413.1958L482.74512,157.25488c24.89014-24.89014,16.74438-49.32764-18.10181-54.30566L319.83911,82.2627a32.00028,32.00028,0,0,0-27.15283,9.05078L70.62744,313.37256a32,32,0,0,0,0,45.25488l82.74512,82.74512a32.00041,32.00041,0,0,0,45.25488,0l92.11768-92.11768L687.13135,745.64111C587.01192,787.91188,470.085,776.49967,379.47724,716.452c-37.37913-24.772-65.26573-57.95519-95.83462-90.16862-25.67975-27.06127-56.4511-52.278-95.3388-31.26767A64.73769,64.73769,0,0,0,155.5651,661.9719c3.67893,22.222,18.34485,35.60291,34.7203,49.23317l-171.54028,171.54c-23.22107,23.22107-24.82769,61.60713-3.56153,86.6482,23.85724,28.09207,67.99132,29.94154,94.07129,3.86157L287.82715,794.68262C426.01742,894.25076,614.46266,907.09309,762.272,820.78174L914.74512,973.25488c26.07486,26.07486,70.21517,24.22991,94.07129-3.86169,21.26693-25.04272,19.66279-63.42285-3.56153-86.64807Z"/></svg>

<svg xmlns="http://www.w3.org/2000/svg" viewBox="0 0 1024 1024" role="img"><path d="M862.422 739.912c84.386-91.765 123.775-218.41 108.135-342.077C954.119 267.85 877.715 137.423 760.702 73.81c-55.02-29.91-120.044-46.145-182.806-42.175-18.104 1.146-36.077 8.824-38.06 29.599-2.923 30.615 25.242 34.343 47.764 34.489 130.353.84 233.295 97.1 277.41 213.908 46.598 123.386 22.37 267.304-70.56 362.309L381.256 258.745l101.49-101.49c24.89-24.89 16.744-49.328-18.102-54.306L319.84 82.263a32 32 0 00-27.153 9.05l-222.06 222.06a32 32 0 000 45.254l82.746 82.746a32 32 0 0045.254 0l92.118-92.118L687.131 745.64c-100.12 42.27-217.046 30.859-307.654-29.189-37.379-24.772-65.265-57.955-95.834-90.169-25.68-27.06-56.451-52.278-95.34-31.267a64.738 64.738 0 00-32.738 66.956c3.679 22.222 18.345 35.603 34.72 49.233l-171.54 171.54c-23.22 23.221-24.828 61.607-3.561 86.648 23.857 28.092 67.99 29.942 94.07 3.862l178.573-178.572c138.19 99.568 326.636 112.41 474.445 26.099l152.473 152.473c26.075 26.075 70.215 24.23 94.071-3.862 21.267-25.043 19.663-63.423-3.561-86.648z"/></svg>
